iconfont/docker.svg

<svg xmlns="http://www.w3.org/2000/svg" width="24" height="24"><path d="M2.2 9.76h2.24v2.18H2.2V9.76m2.75 0H7.2v2.18H4.95V9.76m0-2.8H7.2v2.18H4.95V6.96m2.76 2.8h2.24v2.18H7.71V9.76m0-2.8h2.24v2.18H7.71V6.96m2.75 2.8h2.25v2.18h-2.25V9.76m0-2.8h2.25v2.18h-2.25V6.96m2.76 2.8h2.24v2.18h-2.24V9.76m-2.76-5.6h2.25v2.18h-2.25V4.16M5.33 15.09c.35 0 .63.27.63.61 0 .33-.28.61-.63.61-.33 0-.62-.28-.62-.61 0-.34.29-.61.62-.61m17.36-4.2l.31.17-.16.31c-.64 1.21-1.97 1.58-3.27 1.52-1.95 4.71-6.2 6.95-11.34 6.95-2.66 0-5.1-.97-6.49-3.26l-.02-.04-.22-.4a6.33 6.33 0 0 1-.5-3.22l.03-.33H15.8c.53 0 1.07-.09 1.56-.25l.76-.34c-.31-.4-.48-.91-.52-1.41-.07-.68.07-1.59.55-2.09l.24-.28.28.22c.71.56 1.3 1.33 1.41 2.21.85-.24 1.86-.19 2.61.24M5.34 16.85c.66 0 1.16-.52 1.16-1.15 0-.64-.5-1.16-1.17-1.16-.65 0-1.18.52-1.18 1.16 0 .64.53 1.15 1.19 1.15z"/></svg>

<?xml version="1.0" encoding="UTF-8"?><!DOCTYPE svg PUBLIC "-//W3C//DTD SVG 1.1//EN" "http://www.w3.org/Graphics/SVG/1.1/DTD/svg11.dtd"><svg xmlns="http://www.w3.org/2000/svg" xmlns:xlink="http://www.w3.org/1999/xlink" version="1.1" width="24" height="24" viewBox="0 0 24 24"><path d="M2.2,9.76H4.44V11.94H2.2V9.76H2.2M4.95,9.76H7.2V11.94H4.95V9.76H4.95M4.95,6.96H7.2V9.14H4.95V6.96M7.71,9.76H9.95V11.94H7.71V9.76H7.71M7.71,6.96H9.95V9.14H7.71V6.96M10.46,9.76H12.71V11.94H10.46V9.76H10.46M10.46,6.96H12.71V9.14H10.46V6.96M13.22,9.76H15.46V11.94H13.22V9.76H13.22M10.46,4.16H12.71V6.34H10.46V4.16M5.33,15.09C5.68,15.09 5.96,15.36 5.96,15.7C5.96,16.03 5.68,16.31 5.33,16.31C5,16.31 4.71,16.03 4.71,15.7C4.71,15.36 5,15.09 5.33,15.09M22.69,10.89V10.89L23,11.06L22.84,11.37C22.2,12.58 20.87,12.95 19.57,12.89C17.62,17.6 13.37,19.84 8.23,19.84C5.57,19.84 3.13,18.87 1.74,16.58L1.72,16.54L1.5,16.14C1.05,15.13 0.89,14.03 1,12.92L1.03,12.59H15.8C16.33,12.59 16.87,12.5 17.36,12.34L18.12,12C17.81,11.6 17.64,11.09 17.6,10.59C17.53,9.91 17.67,9 18.15,8.5L18.39,8.22L18.67,8.44C19.38,9 19.97,9.77 20.08,10.65C20.93,10.41 21.94,10.46 22.69,10.89M5.34,16.85V16.85C6,16.85 6.5,16.33 6.5,15.7C6.5,15.06 6,14.54 5.33,14.54C4.68,14.54 4.15,15.06 4.15,15.7C4.15,16.34 4.68,16.85 5.34,16.85Z" /></svg>
